X: 56
M:2/4
L:1/16
K:A
((3uEFG)|AGAB Acea|edea ecBA|fedc dcBA|GABc BEFG|
|:vcd|ecea ecea|fdfa fdfa|fedc dcBA|GABc .B2(cd)|
ecea ecea|fdfa fdfa|gfed cBAG|A2c2A2:|


